Simply-Blue-Circles/scalable/devices/blueman-serial.svg

<svg xmlns="http://www.w3.org/2000/svg" width="48" height="48" viewBox="0 0 12.7 12.7"><path d="M6.34.07a6.29 6.29 0 0 0-6.29 6.3 6.29 6.29 0 0 0 6.3 6.28 6.29 6.29 0 0 0 6.28-6.29A6.29 6.29 0 0 0 6.34.07zm-.01.94a5.4 5.4 0 0 1 5.4 5.4 5.4 5.4 0 0 1-5.4 5.41 5.4 5.4 0 0 1-5.41-5.4A5.4 5.4 0 0 1 6.32 1zM4.37 2.6v1.7h4V2.6h-4zM2.99 4.5l-.01 3.6h.87l.5-.7 1.05.01.3 2.44H7l.3-2.44c-.26.01.77-.02 1.04 0l.51.7.87-.01-.01-3.58H2.99zm2.44.72h1.85v.38H5.43v-.38zm0 1h1.85v.37H5.43v-.38zm.45.98h.92v.38h-.92V7.2zm0 .98h.92v.38h-.92V8.2zm-2.9.03l.07 1.18h.64l.14-1.18h-.85zm5.9 0L9 9.4h.64l.07-1.18h-.85z" stroke-width="3.78" fill="#2c89a0"/></svg>

<?xml version="1.0" encoding="UTF-8" standalone="no"?>
<svg
   xmlns:dc="http://purl.org/dc/elements/1.1/"
   xmlns:cc="http://creativecommons.org/ns#"
   xmlns:rdf="http://www.w3.org/1999/02/22-rdf-syntax-ns#"
   xmlns:svg="http://www.w3.org/2000/svg"
   xmlns="http://www.w3.org/2000/svg"
   xmlns:sodipodi="http://sodipodi.sourceforge.net/DTD/sodipodi-0.dtd"
   xmlns:inkscape="http://www.inkscape.org/namespaces/inkscape"
   width="48"
   height="48"
   viewBox="0 0 12.7 12.7"
   version="1.1"
   id="svg4"
   sodipodi:docname="blueman-serial.svg"
   inkscape:version="0.92.4 (5da689c313, 2019-01-14)">
  <metadata
     id="metadata10">
    <rdf:RDF>
      <cc:Work
         rdf:about="">
        <dc:format>image/svg+xml</dc:format>
        <dc:type
           rdf:resource="http://purl.org/dc/dcmitype/StillImage" />
        <dc:title></dc:title>
      </cc:Work>
    </rdf:RDF>
  </metadata>
  <defs
     id="defs8" />
  <sodipodi:namedview
     pagecolor="#ffffff"
     bordercolor="#666666"
     borderopacity="1"
     objecttolerance="10"
     gridtolerance="10"
     guidetolerance="10"
     inkscape:pageopacity="0"
     inkscape:pageshadow="2"
     inkscape:window-width="1087"
     inkscape:window-height="480"
     id="namedview6"
     showgrid="false"
     inkscape:zoom="4.9166667"
     inkscape:cx="2.1355932"
     inkscape:cy="24"
     inkscape:window-x="0"
     inkscape:window-y="25"
     inkscape:window-maximized="0"
     inkscape:current-layer="svg4" />
  <path
     d="M 6.34,0.07 A 6.29,6.29 0 0 0 0.05,6.37 6.29,6.29 0 0 0 6.35,12.65 6.29,6.29 0 0 0 12.63,6.36 6.29,6.29 0 0 0 6.34,0.07 Z M 6.33,1.01 a 5.4,5.4 0 0 1 5.4,5.4 5.4,5.4 0 0 1 -5.4,5.41 A 5.4,5.4 0 0 1 0.92,6.42 5.4,5.4 0 0 1 6.32,1 Z M 4.37,2.6 v 1.7 h 4 V 2.6 Z M 2.99,4.5 2.98,8.1 H 3.85 L 4.35,7.4 5.4,7.41 5.7,9.85 H 7 L 7.3,7.41 c -0.26,0.01 0.77,-0.02 1.04,0 L 8.85,8.11 9.72,8.1 9.71,4.52 H 2.99 Z M 5.43,5.22 H 7.28 V 5.6 H 5.43 Z m 0,1 H 7.28 V 6.59 H 5.43 V 6.21 Z M 5.88,7.2 H 6.8 V 7.58 H 5.88 Z m 0,0.98 H 6.8 V 8.56 H 5.88 V 8.2 Z M 2.98,8.21 3.05,9.39 H 3.69 L 3.83,8.21 Z m 5.9,0 L 9,9.4 H 9.64 L 9.71,8.22 H 8.86 Z"
     id="path2"
     inkscape:connector-curvature="0"
     style="fill:#2c89a0;stroke-width:3.77999997" />
</svg>
